<?xml version="1.0" encoding="UTF-8"?>
<map version="1.10" tiledversion="1.11.2" orientation="orthogonal" renderorder="right-down" width="25" height="15" tilewidth="16" tileheight="16" infinite="0" nextlayerid="10" nextobjectid="1">
 <tileset firstgid="1" source="tileset.tsx"/>
 <layer id="2" name="floor" width="25" height="15">
  <data encoding="csv">
0,0,0,0,0,0,0,0,0,0,0,0,0,0,0,0,0,0,0,0,0,0,0,0,0,
0,0,0,0,0,0,0,0,0,0,0,0,0,0,0,0,0,0,0,0,0,0,0,0,0,
0,0,0,0,0,0,0,0,0,0,0,0,0,0,0,0,0,0,0,0,0,0,0,0,0,
0,0,0,0,0,0,0,0,411,410,410,410,410,410,410,411,411,0,0,0,0,0,0,0,0,
0,0,0,0,0,0,0,0,410,410,410,410,410,410,410,411,411,0,0,0,0,0,0,0,0,
0,0,0,0,0,0,0,0,411,410,410,410,410,410,410,411,411,0,0,0,0,0,0,0,0,
0,0,0,0,0,0,0,0,410,410,410,410,410,410,410,410,410,0,0,0,0,0,0,0,0,
0,0,0,0,0,0,0,0,411,411,410,410,410,410,410,410,410,0,0,0,0,0,0,0,0,
0,0,0,0,0,0,0,0,411,411,410,410,410,410,410,410,410,0,0,0,0,0,0,0,0,
0,0,0,0,0,0,0,0,410,410,410,410,410,410,410,410,410,0,0,0,0,0,0,0,0,
0,0,0,0,0,0,0,0,410,410,410,410,410,410,410,410,410,0,0,0,0,0,0,0,0,
0,0,0,0,0,0,0,0,411,411,410,410,410,410,410,410,411,0,0,0,0,0,0,0,0,
0,0,0,0,0,0,0,0,410,410,410,410,410,410,410,410,411,0,0,0,0,0,0,0,0,
0,0,0,0,0,0,0,0,411,411,410,410,410,410,410,411,411,0,0,0,0,0,0,0,0,
0,0,0,0,0,0,0,0,0,0,410,410,410,410,410,0,0,0,0,0,0,0,0,0,0
</data>
 </layer>
 <layer id="8" name="carpet" width="25" height="15">
  <data encoding="csv">
0,0,0,0,0,0,0,0,0,0,0,0,0,0,0,0,0,0,0,0,0,0,0,0,0,
0,0,0,0,0,0,0,0,0,0,0,0,0,0,0,0,0,0,0,0,0,0,0,0,0,
0,0,0,0,0,0,0,0,0,0,0,0,0,0,0,0,0,0,0,0,0,0,0,0,0,
0,0,0,0,0,0,0,0,0,0,0,0,0,0,0,0,0,0,0,0,0,0,0,0,0,
0,0,0,0,0,0,0,0,0,0,1083,1084,1084,1084,1085,0,0,0,0,0,0,0,0,0,0,
0,0,0,0,0,0,0,0,0,0,1135,1136,1136,1136,1137,0,0,0,0,0,0,0,0,0,0,
0,0,0,0,0,0,0,0,0,0,1135,1136,1136,1136,1137,0,0,0,0,0,0,0,0,0,0,
0,0,0,0,0,0,0,0,0,0,1135,1136,1136,1136,1137,0,0,0,0,0,0,0,0,0,0,
0,0,0,0,0,0,0,0,0,0,1135,1136,1136,1136,1137,0,0,0,0,0,0,0,0,0,0,
0,0,0,0,0,0,0,0,0,0,1135,1136,1136,1136,1137,0,0,0,0,0,0,0,0,0,0,
0,0,0,0,0,0,0,0,0,0,1135,1136,1136,1136,1137,0,0,0,0,0,0,0,0,0,0,
0,0,0,0,0,0,0,0,0,0,1135,1136,1136,1136,1137,0,0,0,0,0,0,0,0,0,0,
0,0,0,0,0,0,0,0,0,0,1135,1136,1136,1136,1137,0,0,0,0,0,0,0,0,0,0,
0,0,0,0,0,0,0,0,0,0,1135,1136,1136,1136,1137,0,0,0,0,0,0,0,0,0,0,
0,0,0,0,0,0,0,0,0,0,0,1136,1136,1136,0,0,0,0,0,0,0,0,0,0,0
</data>
 </layer>
 <layer id="6" name="collision_wall" width="25" height="15">
  <data encoding="csv">
0,0,0,0,0,0,0,0,407,408,408,408,408,408,408,408,409,0,0,0,0,0,0,0,0,
0,0,0,0,0,0,0,0,459,465,465,465,465,465,465,465,461,0,0,0,0,0,0,0,0,
0,0,0,0,0,0,0,0,459,517,517,517,517,517,517,517,461,0,0,0,0,0,0,0,0,
0,0,0,0,0,0,0,0,459,0,0,0,0,0,0,0,461,0,0,0,0,0,0,0,0,
0,0,0,0,0,0,0,0,459,0,0,0,0,0,0,0,461,0,0,0,0,0,0,0,0,
0,0,0,0,0,0,0,0,459,0,0,0,0,0,0,0,461,0,0,0,0,0,0,0,0,
0,0,0,0,0,0,0,0,459,0,0,0,0,0,0,0,461,0,0,0,0,0,0,0,0,
0,0,0,0,0,0,0,0,459,0,0,0,0,0,0,0,461,0,0,0,0,0,0,0,0,
0,0,0,0,0,0,0,0,459,0,0,0,0,0,0,0,461,0,0,0,0,0,0,0,0,
0,0,0,0,0,0,0,0,459,0,0,0,0,0,0,0,461,0,0,0,0,0,0,0,0,
0,0,0,0,0,0,0,0,459,0,0,0,0,0,0,0,461,0,0,0,0,0,0,0,0,
0,0,0,0,0,0,0,0,459,0,0,0,0,0,0,0,461,0,0,0,0,0,0,0,0,
0,0,0,0,0,0,0,0,459,0,0,0,0,0,0,0,461,0,0,0,0,0,0,0,0,
0,0,0,0,0,0,0,0,459,0,0,0,0,0,0,0,461,0,0,0,0,0,0,0,0,
0,0,0,0,0,0,0,0,667,668,668,0,0,0,668,668,669,0,0,0,0,0,0,0,0
</data>
 </layer>
 <layer id="7" name="collision_countertop" width="25" height="15">
  <data encoding="csv">
0,0,0,0,0,0,0,0,0,0,0,0,0,0,0,0,0,0,0,0,0,0,0,0,0,
0,0,0,0,0,0,0,0,0,0,0,0,0,0,0,0,0,0,0,0,0,0,0,0,0,
0,0,0,0,0,0,0,0,0,0,0,0,0,832,0,0,0,0,0,0,0,0,0,0,0,
0,0,0,0,0,0,0,0,0,0,0,0,0,884,0,0,0,0,0,0,0,0,0,0,0,
0,0,0,0,0,0,0,0,0,0,0,0,0,884,0,0,0,0,0,0,0,0,0,0,0,
0,0,0,0,0,0,0,0,0,0,883,935,935,936,0,0,0,0,0,0,0,0,0,0,0,
0,0,0,0,0,0,0,0,0,0,0,0,0,0,0,0,0,0,0,0,0,0,0,0,0,
0,0,0,0,0,0,0,0,0,0,0,0,0,0,0,0,0,0,0,0,0,0,0,0,0,
0,0,0,0,0,0,0,0,0,0,0,0,0,0,0,0,0,0,0,0,0,0,0,0,0,
0,0,0,0,0,0,0,0,0,0,0,0,0,0,0,0,0,0,0,0,0,0,0,0,0,
0,0,0,0,0,0,0,0,0,0,0,0,0,0,0,0,0,0,0,0,0,0,0,0,0,
0,0,0,0,0,0,0,0,0,0,0,0,0,0,0,0,0,0,0,0,0,0,0,0,0,
0,0,0,0,0,0,0,0,0,0,0,0,0,0,0,0,0,0,0,0,0,0,0,0,0,
0,0,0,0,0,0,0,0,0,0,0,0,0,0,0,0,0,0,0,0,0,0,0,0,0,
0,0,0,0,0,0,0,0,0,0,0,0,0,0,0,0,0,0,0,0,0,0,0,0,0
</data>
 </layer>
 <layer id="4" name="collision_chair" width="25" height="15">
  <data encoding="csv">
0,0,0,0,0,0,0,0,0,0,0,0,0,0,0,0,0,0,0,0,0,0,0,0,0,
0,0,0,0,0,0,0,0,0,0,0,0,0,0,0,0,0,0,0,0,0,0,0,0,0,
0,0,0,0,0,0,0,0,0,0,0,0,0,0,0,0,0,0,0,0,0,0,0,0,0,
0,0,0,0,0,0,0,0,0,0,0,0,0,0,0,0,0,0,0,0,0,0,0,0,0,
0,0,0,0,0,0,0,0,0,0,0,0,0,0,0,0,0,0,0,0,0,0,0,0,0,
0,0,0,0,0,0,0,0,0,0,0,0,0,0,0,0,0,0,0,0,0,0,0,0,0,
0,0,0,0,0,0,0,0,0,0,0,0,0,0,0,0,0,0,0,0,0,0,0,0,0,
0,0,0,0,0,0,0,0,0,0,826,0,0,0,0,0,0,0,0,0,0,0,0,0,0,
0,0,0,0,0,0,0,0,0,0,0,0,0,878,0,0,0,0,0,0,0,0,0,0,0,
0,0,0,0,0,0,0,0,0,0,0,0,0,0,0,0,0,0,0,0,0,0,0,0,0,
0,0,0,0,0,0,0,0,0,0,0,0,0,0,0,0,0,0,0,0,0,0,0,0,0,
0,0,0,0,0,0,0,0,0,0,0,0,0,0,0,0,0,0,0,0,0,0,0,0,0,
0,0,0,0,0,0,0,0,0,0,0,0,0,0,0,0,0,0,0,0,0,0,0,0,0,
0,0,0,0,0,0,0,0,0,0,0,0,0,0,0,0,0,0,0,0,0,0,0,0,0,
0,0,0,0,0,0,0,0,0,0,0,0,0,0,0,0,0,0,0,0,0,0,0,0,0
</data>
 </layer>
 <layer id="3" name="collision_table" width="25" height="15">
  <data encoding="csv">
0,0,0,0,0,0,0,0,0,0,0,0,0,0,0,0,0,0,0,0,0,0,0,0,0,
0,0,0,0,0,0,0,0,0,0,0,0,0,0,0,0,0,0,0,0,0,0,0,0,0,
0,0,0,0,0,0,0,0,0,0,0,0,0,0,0,0,0,0,0,0,0,0,0,0,0,
0,0,0,0,0,0,0,0,0,0,0,0,0,0,0,0,0,0,0,0,0,0,0,0,0,
0,0,0,0,0,0,0,0,0,721,0,0,0,0,0,0,0,0,0,0,0,0,0,0,0,
0,0,0,0,0,0,0,0,0,773,0,0,0,0,0,0,0,0,0,0,0,0,0,0,0,
0,0,0,0,0,0,0,0,0,0,0,0,0,0,0,0,0,0,0,0,0,0,0,0,0,
0,0,0,0,0,0,0,0,0,0,0,823,824,0,0,0,0,0,0,0,0,0,0,0,0,
0,0,0,0,0,0,0,0,0,0,0,875,876,0,0,0,0,0,0,0,0,0,0,0,0,
0,0,0,0,0,0,0,0,0,0,0,0,0,0,0,0,0,0,0,0,0,0,0,0,0,
0,0,0,0,0,0,0,0,0,0,0,0,0,0,0,0,0,0,0,0,0,0,0,0,0,
0,0,0,0,0,0,0,0,0,0,0,0,0,0,0,0,0,0,0,0,0,0,0,0,0,
0,0,0,0,0,0,0,0,0,0,0,0,0,0,0,0,0,0,0,0,0,0,0,0,0,
0,0,0,0,0,0,0,0,0,0,0,0,0,0,0,0,0,0,0,0,0,0,0,0,0,
0,0,0,0,0,0,0,0,0,0,0,0,0,0,0,0,0,0,0,0,0,0,0,0,0
</data>
 </layer>
</map>
